X:186
M:2/4
L:1/8
Q:1/2=80
K:A
|:E d2 c/B/|c e2 d|caAc|Be E2|A c2 B/A/|Bagf|edcB|A2A,2:|

